X: 54
T: ThemeB
M: 6/8
L: 1/8
K:C clef=treble-8 octave=1 
V:1
D,6| F,4D,2| C,4G,2| F,2D,2E,2| D,6| 
x6| A,4F,2| G,6| A,2F, A,G,2| F,3 x2F,| 
D4C2| D6| D,4E,2| D,3 x2D,| F,3 G,3| 
A,4-A,A,| C4B,2| A,3 x2A,| D3 C3| A,3 F,3|
G,6| A,6| D,2F,2E,2| 
D,6|

